X:1
T:Good News
T:Bentley DeForest Ackley, 1920
T:Good News
T:Public Domain
T:Public Domain
C:Bentley DeForest Ackley, 1920
Z:Public Domain
%%score ( 1 2 ) ( 3 4 )
L:1/8
M:4/4
K:Bb
V:1 treble 
V:2 treble 
V:3 bass 
V:4 bass 
V:1
 F2 | [DB]2 [GB]2 [FB]2 [Fc]>[Fc] | [Fd]2 [FB]2 [EG]2 [EG]2 | [DF]2 [DF]>[DF] [EA]2 [Ec]2 | %4
w: 1.~Good|good news from the prom-|ised land! Good news|from the gold- en shore,|
w: 2.~By|we climb to the mount-|ain’s brow, And gaze|on the clus- ters rare|
w: 3.~No|nor death in the prom-|ised land, No toil|for the wear- y soul,|
w: 4.~No|of tears in the prom-|ised land, From care|we shall all be free;|
 [DB]6 [FA]>[=EB] | [Fc]2 [=Ec]2 [Fc]2 [FA]>[EB] | [Fc]2 [=Ec]2 [Fc]2 [FB]2 | %7
w: Where the ran-|somed hosts with their harps|in hand Are shout-|
w: Of the fruits|that grow on the tree|of life For those|
w: But the glad|new song of the blood-|washed throng In cease-|
w: We shall walk|in white by the riv-|er clear, The Lamb|
 [FA]2 [FA]2 [=EG]2 [EG]2 | (F4 (3FGA (3Bc^c) ||"^Refrain" [Fd]>[DB] [DF]2 z4 | %10
w: ing ev- er- more!|||
w: who en- ter there.|Vic- * * * * * *|ry! Vic- to-|
w: less joy shall roll.|||
w: our light shall be.|||
 [Fd]>[DB] [DF]2 z4 | [Ge]2 [Fd]>[=E^c] [Fd]2 [FB]2 | [Fd]>[Fc] [Fc]4 F2 | %13
w: |||
w: ry! Glo- ry|to God for vic- to-|ry! We’ll praise Him|
w: |||
w: |||
 [FB]2 [FB]2 [Fc]2 [Fd]2 | [_Af]>[Ge] [Ge]4 [Ge]2 | [Fd]2 [Fd]2 [EFc]2 [Ec]2 | [DB]6 |] %17
w: ||||
w: the vic- to- ry,|Thro’ Je- sus Christ|our Lord. * *||
w: ||||
w: ||||
V:2
 F2 | x8 | x8 | x8 | x8 | x8 | x8 | x8 | F6 x2 || x8 | x8 | x8 | x6 F2 | x8 | x8 | x8 | x6 |] %17
w: news,|||||||||||||||||
w: faith||||||||to-||||for|||||
w: sin|||||||||||||||||
w: night|||||||||||||||||
V:3
 F,2 | [B,,B,]2 [E,B,]2 [D,B,]2 [F,A,]>[F,A,] | [B,,B,]2 [D,B,]2 [E,B,]2 [E,B,]2 | %3
w: ~|~ ~ ~ ~ ~|~ ~ ~ ~|
 [F,B,]2 [F,B,]>[F,B,] [F,C]2 [F,A,]2 | [B,,B,]6 [F,C]>[G,C] | [A,C]2 [G,B,]2 [F,A,]2 [F,C]>[G,C] | %6
w: ~ ~ ~ ~ ~|~ ~ ~|~ ~ ~ ~ ~|
 [A,C]2 [G,B,]2 [F,A,]2 [B,,D]2 | [C,C]2 [C,C]2 [C,B,]2 [C,B,]2 | [F,A,]6 z2 || z4 D>B, F,2 | %10
w: ~ ~ ~ ~|~ ~ ~ ~|Vic-|to- ry! Vic-|
 z4 D>B, F,2 | [B,,B,]2 [B,,B,]>[B,,B,] [B,,B,]2 [B,,B,]2 | [F,B,]>[F,A,] [F,A,]4 [E,A,]2 | %13
w: |||
 [D,B,]2 [D,B,]2 [F,A,]2 B,2 | [E,B,]>[E,B,] [E,B,]4 [E,B,]2 | [F,B,]2 [F,B,]2 [F,A,]2 [F,A,]2 | %16
w: |||
 [B,,F,B,]6 |] %17
w: |
V:4
 F,2 | x8 | x8 | x8 | x8 | x8 | x8 | x8 | x8 || x4 D>B, F,2 | x4 D>B, F,2 | x8 | x8 | x6 B,2 | x8 | %15
w: ~|||||||||to- ry! *||||||
 x8 | x6 |] %17
w: ||

